docs/inc/icons/jersey.svg

<svg height="16" viewBox="0 0 14 16" width="14" xmlns="http://www.w3.org/2000/svg"><path d="m4.5 6-.5.5v5l.5.5h2l.5-.5v-5l-.5-.5zm1.5 5h-1v-4h1zm6.27-7.25c-.22-1.38-.31-2.63-.27-3.75h-2.98c0 .27-.13.48-.39.69-.25.2-.63.3-1.13.3s-.88-.09-1.13-.3c-.23-.2-.36-.42-.36-.69h-3.01c.05 1.13-.03 2.38-.25 3.75-.2 1.38-.8 2.13-1.75 2.25v9c.02.27.11.48.31.69s.42.3.69.31h11c.27-.02.48-.11.69-.31s.3-.42.31-.69v-9c-.95-.13-1.53-.88-1.75-2.25zm.73 11.25h-11v-8c.89-.5 1.48-1.25 1.72-2.25s.31-2.25.28-3.75h1c-.02.78.16 1.47.52 2.06.36.58 1.02.89 2 .94.98-.02 1.64-.33 2-.94.36-.59.5-1.28.48-2.06h1c.02 1.42.13 2.55.33 3.38.2.81.69 2 1.67 2.63v8zm-4.5-9-.5.5v5l.5.5h2l.5-.5v-5l-.5-.5zm1.5 5h-1v-4h1z" fill-rule="evenodd"/></svg>

<svg xmlns="http://www.w3.org/2000/svg" width="14" height="16" viewBox="0 0 14 16"><path fill-rule="evenodd" d="M4.5 6l-.5.5v5l.5.5h2l.5-.5v-5L6.5 6h-2zM6 11H5V7h1v4zm6.27-7.25C12.05 2.37 11.96 1.12 12 0H9.02c0 .27-.13.48-.39.69-.25.2-.63.3-1.13.3-.5 0-.88-.09-1.13-.3-.23-.2-.36-.42-.36-.69H3c.05 1.13-.03 2.38-.25 3.75C2.55 5.13 1.95 5.88 1 6v9c.02.27.11.48.31.69.2.21.42.3.69.31h11c.27-.02.48-.11.69-.31.21-.2.3-.42.31-.69V6c-.95-.13-1.53-.88-1.75-2.25h.02zM13 15H2V7c.89-.5 1.48-1.25 1.72-2.25S4.03 2.5 4 1h1c-.02.78.16 1.47.52 2.06.36.58 1.02.89 2 .94.98-.02 1.64-.33 2-.94.36-.59.5-1.28.48-2.06h1c.02 1.42.13 2.55.33 3.38.2.81.69 2 1.67 2.63v8V15zM8.5 6l-.5.5v5l.5.5h2l.5-.5v-5l-.5-.5h-2zm1.5 5H9V7h1v4z"/></svg>
